apps/symbolic/system-users-symbolic.svg

<?xml version="1.0" encoding="UTF-8" standalone="no"?>
<svg
   xmlns:dc="http://purl.org/dc/elements/1.1/"
   xmlns:cc="http://creativecommons.org/ns#"
   xmlns:rdf="http://www.w3.org/1999/02/22-rdf-syntax-ns#"
   xmlns:svg="http://www.w3.org/2000/svg"
   xmlns="http://www.w3.org/2000/svg"
   version="1.1"
   width="16"
   height="16"
   id="svg4030">
  <defs
     id="defs4032" />
  <metadata
     id="metadata4035">
    <rdf:RDF>
      <cc:Work
         rdf:about="">
        <dc:format>image/svg+xml</dc:format>
        <dc:type
           rdf:resource="http://purl.org/dc/dcmitype/StillImage" />
        <dc:title />
      </cc:Work>
    </rdf:RDF>
  </metadata>
  <g
     id="layer1">
    <path
       d="M 5.5,2 C 4.1192881,2 3,3.1192881 3,4.5 l 0,1 C 2.723,5.5 2.5,5.723 2.5,6 l 0,0.5 c 0,0.5522848 0.2238576,1 0.5,1 C 3.036819,7.5 3.059197,7.452605 3.09375,7.4375 3.2424961,8.1962857 3.5634421,8.8554146 4,9.3125 3.9793563,10.013443 3.8945633,10.052591 3.84375,10.28125 2.699524,11.29001 1.4321802,11.848166 0.1875,12.625 0.07782795,12.716575 0,12.845299 0,13 l 0,1.5 C 0,14.777 0.22300002,15 0.5,15 l 10,0 C 10.777,15 11,14.777 11,14.5 L 11,13 C 11,12.8615 10.934125,12.746625 10.84375,12.65625 9.5799199,11.876597 8.2799698,11.331802 7.15625,10.28125 7.1054367,10.052591 7.0206437,10.013443 7,9.3125 7.4365579,8.8554146 7.7575039,8.1962857 7.90625,7.4375 7.9408033,7.4526054 7.963181,7.5 8,7.5 8.2761424,7.5 8.5,7.0522848 8.5,6.5 L 8.5,6 C 8.5,5.723 8.277,5.5 8,5.5 l 0,-1 C 8,3.1192881 6.8807119,2 5.5,2 z m 6.25,2 C 10.683086,4 9.8125,4.875414 9.8125,5.9375 l 0,0.75 c -0.1605342,0 -0.2852521,0.111863 -0.34375,0.25 C 9.4642,6.969106 9.443179,6.999973 9.4375,7.03125 c -0.00117,0.01222 0,0.018716 0,0.03125 l 0,0.03125 0,0.375 c 0,0.4248344 0.1616172,0.75 0.375,0.75 0.028451,0 0.067049,-0.019629 0.09375,-0.03125 0.114941,0.5836806 0.35016,1.085896 0.6875,1.4375 -0.01595,0.539187 -0.08574,0.574109 -0.125,0.75 -0.221043,0.193992 -0.455725,0.373195 -0.6875,0.53125 0.500961,0.290278 1.032058,0.559744 1.59375,0.90625 a 1.0017315,1.0017315 0 0 1 0.1875,0.125 C 11.780878,12.155878 12,12.543895 12,13 l 0,1.5 c 0,0.177143 -0.03464,0.340794 -0.09375,0.5 L 15.625,15 C 15.839046,15 16,14.838077 16,14.625 l 0,-2.15625 c 0,-0.106538 -0.05515,-0.21173 -0.125,-0.28125 -0.976596,-0.599733 -1.975421,-1.004383 -2.84375,-1.8125 -0.03927,-0.175891 -0.109049,-0.210813 -0.125,-0.75 0.33734,-0.351604 0.60381,-0.8538193 0.71875,-1.4375 0.0267,0.011621 0.03404,0.03125 0.0625,0.03125 0.213383,0 0.375,-0.3251656 0.375,-0.75 l 0,-0.40625 c 0,-0.2130769 -0.160955,-0.375 -0.375,-0.375 l 0,-0.75 C 13.687496,4.8754138 12.816914,4 11.75,4 z"
       id="path2999"
       style="color:#000000;fill:#bebebe;fill-opacity:1;fill-rule:nonzero;stroke:none;stroke-width:1;marker:none;visibility:visible;display:inline;overflow:visible;enable-background:new" />
  </g>
</svg>

<svg xmlns="http://www.w3.org/2000/svg" viewBox="0 0 16 16"><path d="M5.5 2A2.5 2.5 0 0 0 3 4.5v1a.5.5 0 0 0-.5.5v.5c0 .552.224 1 .5 1 .037 0 .06-.047.094-.063.148.76.47 1.418.906 1.875-.02.7-.105.74-.156.97C2.7 11.29 1.432 11.847.188 12.624A.487.487 0 0 0 0 13v1.5a.5.5 0 0 0 .5.5h10a.5.5 0 0 0 .5-.5V13a.484.484 0 0 0-.156-.344c-1.264-.78-2.564-1.324-3.688-2.375-.05-.22-.135-.26-.156-.96.437-.46.758-1.115.906-1.874.035.016.057.063.094.063.276 0 .5-.448.5-1V6a.5.5 0 0 0-.5-.5v-1A2.5 2.5 0 0 0 5.5 2zm6.25 2a1.945 1.945 0 0 0-1.938 1.938v.75c-.16 0-.285.11-.343.25-.01.03-.03.062-.04.093v.44c0 .43.16.75.374.75.03 0 .067-.02.093-.03.115.59.35 1.09.69 1.44-.017.54-.087.577-.126.75a7.007 7.007 0 0 1-.69.53c.503.29 1.034.56 1.596.91a1.002 1.002 0 0 1 .19.125c.22.22.436.607.436 1.063v1.5c0 .178-.035.34-.094.5h3.72a.367.367 0 0 0 .373-.374v-2.16a.415.415 0 0 0-.124-.282c-.976-.6-1.974-1.003-2.843-1.81-.04-.177-.11-.21-.127-.75a2.86 2.86 0 0 0 .72-1.44c.03.013.036.033.065.033.214 0 .375-.33.375-.75v-.41a.367.367 0 0 0-.376-.378v-.75C13.68 4.874 12.81 4 11.74 4z" color="#000" fill="#bebebe" overflow="visible"/></svg>
